!!!!SEGMENT:Kishinoyanagi.krn
!!!OTL: 岸の柳
!!!OPR:Eiga Banso Kyokusyu,jidai-geki,kouhen
!!!YOY:1928
!!!ONB:Hanami_Odori
**kern
*clefG2
*k[]
*C:
*M2/4
=1
4r
8aL
8aJ
=2
4a
4a
=3
4a
4a
=4
4a
4r
=5
8bL
8b
8e
8aJ
=6
8bL
8b
8e
8aJ
=7
8bL
8b
8e
8aJ
=8
4b
8gL
8f#XJ
=9
8cL
8e
8f#X
8gJ
=10
8bL
8g
8f#X
8gJ
=11
8eL
8eJ
8f#XL
8eJ
=12
8cL
8e
8c
8BJ
=13
8r
8a
8aL
8fJ
=14
4a
8ccL
8ccJ
=15
8r
8b
8bL
8aJ
=16
4b
4r
=17
4b
4b
=18
4b
8bL
8bJ
=19
8b
4b
8a
=20
4b
4r
==
*-
!!!ENC: Yukiko Yoden
!!!END: 2023/06/11
